X:40
T:The Pandon Dance
C:trad
N:Hardy manuscript
I:abc2nwc
M:6/8
L:1/8
K:G
(3d/2e/2f/2|g2d dec|B2G GBd|c2B cAF|G2G GBd|
g2d dec|B2G GBd|c2B cAF|G3G2:|
|:g|f2f fef|g2g gfg|a2a aga|b3bag|
e2e efg|d2d dcB|Aed cBA|G3G2:|

